X:779
T:Oyster Girl
C:Traditional English
R:Jig
S:Colin Hume's website,  colinhume.com  - chords can also be printed below the stave.
Q:3/8=112
M:6/8
L:1/8
K:G
P:A
|: "G"ded B2G | "D7"A2F D2D | "G"G2G BGB | "D7"d2c A3 |\
"G"ded B2g | "C"f2e c2e | "D7"ded cBA |1 "G"G3 G3 :|2 "G"G3 G2 A |
P:B
|: "G"Bcd Bcd | "C"e2c e2c | "D7"ABc ABc | "G"d2B d2B |\
"G"ded B2g | "C"f2e c2e | "D7"ded cBA |1 "G"G3 G2 A :|2 "G"G3 G3 |]

